icon-themes/breeze_svg/cmd/32/bezierfill.svg

<svg viewBox="0 0 32 32" xmlns="http://www.w3.org/2000/svg"><path d="m28 7a21 21 0 0 0 -21 21h21z" fill="#b3b3b3"/><path d="m7 4a3 3 0 0 0 -3 3 3 3 0 0 0 3 3 3 3 0 0 0 2.8261719-2h18.1738281v-2h-18.1757812a3 3 0 0 0 -2.8242188-2zm0 2a1 1 0 0 1 1 1 1 1 0 0 1 -1 1 1 1 0 0 1 -1-1 1 1 0 0 1 1-1z" fill="#1d99f3"/><path d="m28 6a22 22 0 0 0 -22 22h2a20 20 0 0 1 20-20z" fill="#4d4d4d"/></svg>

<svg xmlns="http://www.w3.org/2000/svg" viewBox="0 0 32 32">
 <path 
     style="fill:#b3b3b3" 
     d="M 28 7 A 21 21 0 0 0 7 28 L 28 28 L 28 7 z "
     />
 <path 
     style="fill:#1d99f3" 
     d="M 7 4 A 3 3 0 0 0 4 7 A 3 3 0 0 0 7 10 A 3 3 0 0 0 9.8261719 8 L 28 8 L 28 6 L 9.8242188 6 A 3 3 0 0 0 7 4 z M 7 6 A 1 1 0 0 1 8 7 A 1 1 0 0 1 7 8 A 1 1 0 0 1 6 7 A 1 1 0 0 1 7 6 z "
     />
 <path 
     style="fill:#4d4d4d" 
     d="M 28 6 A 22 22 0 0 0 6 28 L 8 28 A 20 20 0 0 1 28 8 L 28 6 z "
     />
</svg>
